X:180
T: Esik az eső, nincsen sár
M:4/4
L:1/4
K:Eb
E C/D/ E<D | C G, C z |
G>E G<F | E B, E z |
G B A G | C/C/G/G/ G<F |
E C D/D/B,/B,/ | C<C C z |

